svg/Filled/alert_filled.svg

<svg viewBox="0 0 24 24" xmlns="http://www.w3.org/2000/svg" width="24" height="24"><path d="M13.5 17.5a1.5 1.5 0 1 1-3 0 1.5 1.5 0 0 1 3 0"/><path fill-rule="evenodd" d="M11.99 5c.46 0 .74.13 1.01.36q.42.36.4.9l-.26 7.3q-.01.35-.28.6l-.08.07c-.2.16-.57.27-.8.27q-.35 0-.69-.2l-.08-.07a1 1 0 0 1-.36-.66l-.25-7.31v-.14q.04-.47.4-.78c.27-.22.53-.34.99-.34" clip-rule="evenodd"/></svg>

<svg viewBox="0 0 24 24" xmlns="http://www.w3.org/2000/svg" width="24" height="24"><path d="M13.5 17.5a1.5 1.5 0 1 1-3 0 1.5 1.5 0 0 1 3 0"/><path fill-rule="evenodd" d="M11.99 5C12.45 5 12.73 5.13 13 5.36Q13.42 5.72 13.4 6.26L13.14 13.56Q13.13 13.91 12.86 14.16L12.78 14.23C12.58 14.39 12.21 14.5 11.98 14.5Q11.63 14.5 11.29 14.3L11.21 14.23A1 1 0 0 1 10.85 13.57L10.6 6.12Q10.64 5.65 11 5.34C11.27 5.12 11.53 5 11.99 5" clip-rule="evenodd"/></svg>
